source/img/cat_slim_desktop.svg

<svg width="100" height="106" viewBox="0 0 100 106" fill="none" xmlns="http://www.w3.org/2000/svg">
<circle cx="50" cy="56" r="50" fill="#68B738"/>
<g clip-path="url(#clip0_2403_488)">
<path d="M69.84 0H69.46C68.818 0.362938 68.307 0.919413 68 1.59C67.4377 2.67211 67.0047 3.81665 66.71 5C66.6468 5.35582 66.4671 5.68054 66.1992 5.92311C65.9313 6.16567 65.5903 6.31232 65.23 6.34C64.1279 6.52999 63.0837 6.96931 62.1773 7.62443C61.2709 8.27955 60.5262 9.13313 60 10.12C59.2766 11.4013 58.6579 12.739 58.15 14.12C56.73 17.8 55.64 21.6 54.3 25.31C53.67 27 53.64 27 51.74 27C49.47 27 49.63 26.65 49.6 29.15C49.6 29.94 49.84 30.34 50.68 30.3C50.94 30.3 51.33 30.17 51.43 30.51C51.53 30.85 51.19 31 50.99 31.2C49.8043 32.4036 48.3037 33.2492 46.66 33.64C44.76 34.15 42.82 34.55 40.97 35.17C36.22 36.76 31.83 38.98 28.41 42.74C26.4103 45.0754 24.8088 47.7242 23.67 50.58C20 59.22 18.22 68.32 16.84 77.51C16.19 81.82 15.73 86.15 15.38 90.51C15.2 92.65 15 94.82 15 97H48.33C48.3853 96.5599 48.3051 96.1133 48.1 95.72C47.7794 94.9221 47.2586 94.2204 46.5877 93.6827C45.9167 93.1449 45.1185 92.7892 44.27 92.65C43.57 92.49 43.49 92.28 43.92 91.73C44.6214 90.7939 45.159 89.7458 45.51 88.63C47.14 83.82 47.77 78.8 48.56 73.83C49.0063 70.0338 50.1739 66.3579 52 63C53.4244 60.5284 55.3243 58.3634 57.59 56.63C58.42 56 58.45 56 58.59 57.07C58.69 57.78 58.71 58.51 58.76 59.23C59.0601 63.9544 58.9999 68.6948 58.58 73.41C58.2024 77.0649 58.1522 80.7462 58.43 84.41C58.8275 88.6636 59.5869 92.8755 60.7 97H74C73.8264 95.9175 73.328 94.9132 72.5708 94.1203C71.8136 93.3274 70.8334 92.7833 69.76 92.56C68.5066 92.3608 67.2252 92.429 66 92.76C65.4 92.9 65.15 92.76 65.1 92.11C64.6863 86.8159 65.0229 81.4899 66.1 76.29C67.4338 70.287 68.4552 64.2189 69.16 58.11C69.4224 55.643 70.1992 53.2584 71.44 51.11C72.63 48.99 73.67 46.79 74.84 44.66C75.3045 43.8855 75.5841 43.0143 75.657 42.1141C75.7298 41.2139 75.594 40.3091 75.26 39.47C74.99 38.76 74.73 38.04 74.4 37.36C73.4 35.41 72.4 33.48 71.48 31.51C70.99 30.51 71.1 30.39 72.19 30.36C73.82 30.36 73.82 30.36 73.85 28.72C73.85 28.5 73.85 28.28 73.85 28.06C73.85 27.37 73.59 26.99 72.85 27.06C72.35 27.06 71.85 27.06 71.33 27.06C70.64 27.06 70.44 26.77 70.61 26.06C70.9473 24.9058 71.611 23.8737 72.5211 23.0877C73.4312 22.3018 74.549 21.7956 75.74 21.63C77.9557 21.4379 80.1878 21.5829 82.36 22.06C82.6107 22.139 82.8823 22.1161 83.1162 21.9963C83.3502 21.8766 83.5275 21.6695 83.61 21.42C84.01 20.42 84.45 19.42 84.9 18.42C85.002 18.2426 85.0471 18.0381 85.0292 17.8343C85.0113 17.6304 84.9313 17.437 84.8 17.28C81.6 13.22 78.13 9.43 73.4 7C73.1715 6.90163 72.9712 6.7476 72.8175 6.55196C72.6638 6.35633 72.5615 6.12531 72.52 5.88C72.2523 4.45051 71.8264 3.05525 71.25 1.72C70.9795 1.00861 70.4845 0.404782 69.84 0V0Z" fill="black"/>
</g>
<defs>
<clipPath id="clip0_2403_488">
<rect width="70" height="97" fill="white" transform="translate(15)"/>
</clipPath>
</defs>
</svg>

<svg width="100" height="106" fill="none" xmlns="http://www.w3.org/2000/svg"><circle cx="50" cy="56" r="50" fill="#68B738"/><g clip-path="url(#a)"><path d="M69.84 0h-.38A3.5 3.5 0 0 0 68 1.59c-.56 1.08-1 2.23-1.29 3.41a1.63 1.63 0 0 1-1.48 1.34A7.34 7.34 0 0 0 60 10.12a27.31 27.31 0 0 0-1.85 4c-1.42 3.68-2.51 7.48-3.85 11.19C53.67 27 53.64 27 51.74 27c-2.27 0-2.11-.35-2.14 2.15 0 .79.24 1.19 1.08 1.15.26 0 .65-.13.75.21.1.34-.24.49-.44.69a9 9 0 0 1-4.33 2.44c-1.9.51-3.84.91-5.69 1.53-4.75 1.59-9.14 3.81-12.56 7.57a28 28 0 0 0-4.74 7.84c-3.67 8.64-5.45 17.74-6.83 26.93-.65 4.31-1.11 8.64-1.46 13C15.2 92.65 15 94.82 15 97h33.33c.06-.44-.02-.89-.23-1.28a5 5 0 0 0-3.83-3.07c-.7-.16-.78-.37-.35-.92.7-.94 1.24-1.98 1.59-3.1 1.63-4.81 2.26-9.83 3.05-14.8A30 30 0 0 1 52 63a21.6 21.6 0 0 1 5.59-6.37c.83-.63.86-.63 1 .44.1.71.12 1.44.17 2.16.3 4.72.24 9.46-.18 14.18a61.67 61.67 0 0 0-.15 11c.4 4.25 1.16 8.47 2.27 12.59H74a5.41 5.41 0 0 0-4.24-4.44 9 9 0 0 0-3.76.2c-.6.14-.85 0-.9-.65a56.35 56.35 0 0 1 1-15.82c1.33-6 2.36-12.07 3.06-18.18a17.75 17.75 0 0 1 2.28-7c1.19-2.12 2.23-4.32 3.4-6.45a5.87 5.87 0 0 0 .42-5.19c-.27-.71-.53-1.43-.86-2.11-1-1.95-2-3.88-2.92-5.85-.49-1-.38-1.12.71-1.15 1.63 0 1.63 0 1.66-1.64v-.66c0-.69-.26-1.07-1-1h-1.52c-.69 0-.89-.29-.72-1a6.24 6.24 0 0 1 5.13-4.43 22 22 0 0 1 6.62.43 1 1 0 0 0 1.25-.64c.4-1 .84-2 1.29-3a1 1 0 0 0-.1-1.14C81.6 13.22 78.13 9.43 73.4 7a1.49 1.49 0 0 1-.88-1.12 19.6 19.6 0 0 0-1.27-4.16A3.5 3.5 0 0 0 69.84 0Z" fill="#000"/></g><defs><clipPath id="a"><path fill="#fff" transform="translate(15)" d="M0 0h70v97H0z"/></clipPath></defs></svg>
